X:3353
T:Conscription (F. Paris)
M:2/4
L:1/16
K:G
(3DEF|G2D2 B2D2|G6AB|c2A2 d3c|BcBA GDEF|G2D2 B2D2|\
G6AB|c2A2 d2F2|G6:|
|:(3ABc|d3c B2A2|G2c4AB|c2A2 d3c|BcBA GABc|d3c B2A2|\
G2c4AB|c2A2 d2F2|G4:|


